X:174
T:Polska efter Pelle Fors
R:sl\"angpolska
H:efter Pelle Fors, upptecknad av R L R\"a\"af 1888. Jfr #76
A:\"Osterg\"otland
Z:id:hn-sp-174
M:3/4
L:1/16
K:D
A2F2 AFAc e2d2 | e2c2 eceg b2a2 | fgaf efge dcde | fece dcdA GFED |
A2F2 AFAc e2d2 | e2c2 eceg b2a2 | fgaf efge dcde | fece e3d d2 z2 :|
K:Dm
|: f2c2 f2a2 c'2a2 | a2gf eceg agfe | f2c2 f2a2 c'2a2 | a2gf eceg agfe |
fgaf fege dcde | fece d^cdA G^FED | f2c2 f2a2 c'2a2 | a2gf eceg agfe |
f2c2 f2a2 c'2a2 | a2gf eceg agfe | fgaf fege dcde | fece e3d d2 z2 :|

